X:1
T:BAIÃO DOS QUATRO TOQUES
T:BAIÃO DOS QUATRO TOQUES
T:Zé Miguel Wisnik e luiz Tatit Introdução da 5ª Sinfonia  - Dó menor Op.67 de Beethoven Arr: Manuel Figueiredo de Abreu 
T:Reuel Gomes
T:Reuel Gomes
C:Zé Miguel Wisnik e luiz Tatit Introdução da 5ª Sinfonia  - Dó menor Op.67 de Beethoven Arr: Manuel Figueiredo de Abreu
Z:Reuel Gomes
%%score [ 1 2 3 4 ]
L:1/8
Q:1/4=180
M:2/4
K:Eb
V:1 treble nm="Soprano" snm="S."
V:2 treble nm="Alto" snm="A."
V:3 treble-8 nm="Tenor" snm="T."
V:4 bass nm="Bass" snm="B."
V:1
 z G GG | !fermata!E4 | z F FF | (D4 | D4) | z4 | z A AA | (G4 | G4) | z G GG | D4 | z F FF | (D4 | %13
 D)G GF | E4 | DG GF | E4 | DG GF | E2 z2 | c2 z2 | !fermata![=Bg]4 ||[Q:1/4=90] z2 z/ G/G/G/ |: %22
 E2 z/ F/F/F/ | D2 z/ F/F/F/ | D/F/F/F/ F/E/G- | G2 z/ G/G/G/ | E3/2(c3/2c) | c3/2(A3/2A) | G3 F |1 %29
 E2 z/ G/G/G/ :|2 E2 z/ G/G/G/ |: E/c/c/c/ G2 | c4 | =B4 | (c4 | c2) G2 | A2 z/ A/A/A/ | %37
 F/A/A/A/ A/A/G- |1 G2 z/ G/G/G/ :|2 G2 z/ C/C/E/ || E2 z/ D/D/F/ | F2 z/ E/E/G/ | %42
 G/F/F/A/ A/A/(G | G2) z/ C/C/E/ | E2 z/ D/D/F/ | F2 z/ E/E/G/ | G/F/F/A/ A/G/G/B/ | %47
 B/A/A/c/ c/=B/B/d/ | d/c/e/c/ G/E/D/C/ | E z [G=B] z | [Gc] z z2!D.C.! |] %51
V:2
 z G GG | !fermata!E4 | z F FF | (D4 | D4) | z G GG | E4 | z E EE | (C4 | C4) | (D4 | D4) | (G4 | %13
 (G4) | G)E EF | (G4 | G)E EF | GD DD | E2 z2 | A2 z2 | !fermata!G4 || z2 z/ G/G/G/ |: %22
 E2 z/ F/F/F/ | D2 z/ F/F/F/ | D/F/F/F/ F/E/G- | G2 z/ G/G/G/ | E2 z/ F/F/F/ | D2 z/ F/F/F/ | %28
 D/F/F/F/ E/D/C- |1 C2 z/ G/G/G/ :|2 C2 z/ G/G/G/ |: E2 z/ E/E/D/ | F>(F F2) | G2 F2 | (G4 | %35
 G2) E2 | F2 z/ F/F/F/ | F/F/F/F/ F/F/E- |1 E2 z/ G/G/G/ :|2 E2 z/ C/C/E/ || E2 z/ D/D/F/ | %41
 F2 z/ E/E/G/ | G/F/F/A/ A/A/(G | G2) z/ C/C/E/ | E2 z/ D/D/F/ | F2 z/ E/E/G/ | G/F/F/F/ F/F/F/G/ | %47
 G/A/A/A/ A/G/G/G/ | G/G/G/G/ G/E/D/C/ | E z D z | E z z2 |] %51
V:3
 z G GG | !fermata!E4 | z F FF | (D4 | D4) | z4 | (c4 | c4) | (e4 | e4) | z A AA | G4 | (d4 | d4) | %14
 ee ef | (g4 | g)e ef | g3 G | G2 z2 | ^F2 z2 | !fermata!D4 || z2 z/ G/G/G/ |: E2 z/ F/F/F/ | %23
 D2 z/ F/F/F/ | D/F/F/F/ F/E/G- | G2 z/ G/G/G/ | E2 z/ G/G/G/ | ^F2 z/ =F/F/F/ | G/G/G/G/ G/G/G- |1 %29
 G2 z/ G/G/G/ :|2 G2 z2 |: G>(G G2) | A2 z/ A/A/A/ | F/d/d/d/ d/c/(e | e2) z/ G/G/G/ | %35
 E/c/c/c/ G/c/c/=B/ | d>(d d2) | d2 =B2 |1 c4 :|2 c2 z/ C/C/E/ || E2 z/ D/D/F/ | F2 z/ E/E/G/ | %42
 G/F/F/A/ A/A/(G | G2) z/ C/C/E/ | E2 z/ D/D/F/ | F2 z/ E/E/G/ | G/d/d/d/ d/d/d/d/ | %47
 c/c/c/c/ d/d/d/d/ | c/B/A/G/ G/G/F/E/ | E z F z | c z z2 |] %51
V:4
 z G, G,G, | !fermata!E,4 | z F, F,F, | (D,4 | D,4) | z4 | (C4 | (C4) | (C4) | C4) | (=B,4 | %11
 (=B,4) | (=B,4) | =B,4) | C4 | =B,4 | C4 | =B,=B,, B,,B,, | C,2 z2 | A,,2 z2 | !fermata!G,,4 || %21
 z2 z/ G,/G,/G,/ |: E,2 z/ F,/F,/F,/ | D,2 z/ F,/F,/F,/ | D,/F,/F,/F,/ F,/E,/G,- | %25
 G,2 z/ G,/G,/G,/ | E,3/2(E,3/2E,) | D,3/2(D,3/2D,) | D,3 =B,, |1 C,2 z/ G,/G,/G,/ :|2 C,2 z2 |: %31
 C,>(C, C,2) | D,2 z/ D,/D,/D,/ | F,/F,/F,/F,/ F,/F,/(G, | G,2) z/ G,/G,/G,/ | %35
 E,/A,/A,/A,/ G,/A,/A,/G,/ | A,>(A, A,2) | =B,2 G,2 |1 C,4 :|2 C,2 z/ C,/C,/E,/ || %40
 E,2 z/ D,/D,/F,/ | F,2 z/ E,/E,/G,/ | G,/F,/F,/A,/ A,/A,/(G, | G,2) z/ C,/C,/E,/ | %44
 E,2 z/ D,/D,/F,/ | F,2 z/ E,/E,/G,/ | G,/G,/G,/G,/ G,/G,/G,/G,/ | F,/F,/F,/F,/ F,/F,/F,/F,/ | %48
 E,/E,/E,/E,/ E,/E,/E,/E,/ | E, z G,, z | C, z z2 |] %51

